packages/icons/src/emoji/svg/note.svg

<svg width="120" height="120" viewBox="0 0 120 120" fill="none" xmlns="http://www.w3.org/2000/svg">
<g clip-path="url(#clip0_212_678)">
<path d="M273.919 252.403H164.119C162.506 252.403 157.678 248.241 157.678 246.619L161.194 172.088C161.194 170.475 162.506 169.163 164.119 169.163L272.11 166.181C273.722 166.181 276.844 170.466 276.844 172.088V249.478C276.844 251.1 275.531 252.403 273.919 252.403ZM98.8689 117.338H23.6158C22.1627 117.338 20.9814 116.156 20.9814 114.703V17.7938C20.9814 16.3407 22.1627 15.1594 23.6158 15.1594H98.8689C100.322 15.1594 101.503 16.3407 101.503 17.7938V114.713C101.503 116.166 100.322 117.338 98.8689 117.338Z" fill="#78909C"/>
<path d="M96.3846 114.863H21.1314C19.6783 114.863 18.4971 113.681 18.4971 112.228V15.3094C18.4971 13.8563 19.6783 12.675 21.1314 12.675H96.3846C97.8377 12.675 99.0189 13.8563 99.0189 15.3094V112.228C99.0189 113.681 97.8377 114.863 96.3846 114.863Z" fill="#E0E0E0"/>
<path d="M87.5908 43.7532H29.9346C29.313 43.7532 28.7168 43.5062 28.2773 43.0667C27.8378 42.6272 27.5908 42.031 27.5908 41.4094C27.5908 40.7878 27.8378 40.1917 28.2773 39.7521C28.7168 39.3126 29.313 39.0657 29.9346 39.0657H87.5908C88.2124 39.0657 88.8086 39.3126 89.2481 39.7521C89.6876 40.1917 89.9346 40.7878 89.9346 41.4094C89.9346 42.031 89.6876 42.6272 89.2481 43.0667C88.8086 43.5062 88.2124 43.7532 87.5908 43.7532ZM87.5908 56.6251H29.9346C29.313 56.6251 28.7168 56.3781 28.2773 55.9386C27.8378 55.499 27.5908 54.9029 27.5908 54.2813C27.5908 53.6597 27.8378 53.0636 28.2773 52.624C28.7168 52.1845 29.313 51.9376 29.9346 51.9376H87.5908C88.2124 51.9376 88.8086 52.1845 89.2481 52.624C89.6876 53.0636 89.9346 53.6597 89.9346 54.2813C89.9346 54.9029 89.6876 55.499 89.2481 55.9386C88.8086 56.3781 88.2124 56.6251 87.5908 56.6251ZM87.5908 69.4969H29.9346C29.313 69.4969 28.7168 69.25 28.2773 68.8105C27.8378 68.3709 27.5908 67.7748 27.5908 67.1532C27.5908 66.5316 27.8378 65.9354 28.2773 65.4959C28.7168 65.0564 29.313 64.8094 29.9346 64.8094H87.5908C88.2124 64.8094 88.8086 65.0564 89.2481 65.4959C89.6876 65.9354 89.9346 66.5316 89.9346 67.1532C89.9346 67.7748 89.6876 68.3709 89.2481 68.8105C88.8086 69.25 88.2124 69.4969 87.5908 69.4969ZM87.5908 82.3782H29.9346C29.313 82.3782 28.7168 82.1312 28.2773 81.6917C27.8378 81.2522 27.5908 80.656 27.5908 80.0344C27.5908 79.4128 27.8378 78.8167 28.2773 78.3771C28.7168 77.9376 29.313 77.6907 29.9346 77.6907H87.5908C88.2124 77.6907 88.8086 77.9376 89.2481 78.3771C89.6876 78.8167 89.9346 79.4128 89.9346 80.0344C89.9346 80.656 89.6876 81.2522 89.2481 81.6917C88.8086 82.1312 88.2124 82.3782 87.5908 82.3782ZM54.5908 95.2501H29.9346C29.313 95.2501 28.7168 95.0031 28.2773 94.5636C27.8378 94.124 27.5908 93.5279 27.5908 92.9063C27.5908 92.2847 27.8378 91.6886 28.2773 91.249C28.7168 90.8095 29.313 90.5626 29.9346 90.5626H54.5908C55.2124 90.5626 55.8086 90.8095 56.2481 91.249C56.6876 91.6886 56.9346 92.2847 56.9346 92.9063C56.9346 93.5279 56.6876 94.124 56.2481 94.5636C55.8086 95.0031 55.2124 95.2501 54.5908 95.2501Z" fill="#616161"/>
<path d="M99.0186 88.5093L87.4592 102.966L72.5811 114.862H96.3842C97.8561 114.862 99.0186 113.728 99.0186 112.228V88.5093Z" fill="#B0BEC5"/>
<path d="M72.5811 114.862C73.3311 110.766 73.5936 105.975 72.9186 99.8718C72.7686 98.4749 73.7998 97.2374 75.2061 97.1718C78.4498 97.0124 84.0186 96.5999 87.9654 95.5499C93.6186 94.0499 99.0186 88.5093 99.0186 88.5093C99.0186 88.5093 95.7279 97.2561 87.0561 105.628C80.9436 111.525 72.5811 114.862 72.5811 114.862Z" fill="#78A3AD"/>
<path d="M35.7652 23.4751C31.0027 23.4751 27.2715 18.9001 27.2715 13.0688C27.2715 7.2376 31.0027 2.6626 35.7652 2.6626C40.5277 2.6626 44.259 7.2376 44.259 13.0688C44.259 13.6032 44.2309 14.1282 44.1652 14.6438C43.9777 16.1907 42.5715 17.2782 41.034 17.0907C39.4965 16.9032 38.3996 15.497 38.5871 13.9501C38.6246 13.6688 38.6434 13.3688 38.6434 13.0595C38.6434 10.322 37.1246 8.27822 35.7746 8.27822C34.4246 8.27822 32.9059 10.322 32.9059 13.0595C32.9059 15.797 34.4246 17.8407 35.7746 17.8407C37.3309 17.8407 38.5871 19.097 38.5871 20.6532C38.5871 22.2095 37.3215 23.4751 35.7652 23.4751Z" fill="#616161"/>
<path d="M37.7812 12.7312H45.1313V18.4312H37.7812V12.7312Z" fill="#E0E0E0"/>
<path d="M58.5562 23.4751C53.7937 23.4751 50.0625 18.9001 50.0625 13.0688C50.0625 7.2376 53.7937 2.6626 58.5562 2.6626C63.3187 2.6626 67.05 7.2376 67.05 13.0688C67.05 13.5938 67.0219 14.1188 66.9562 14.6345C66.7687 16.172 65.3625 17.2688 63.825 17.0907C63.4578 17.0471 63.1029 16.9314 62.7806 16.7502C62.4582 16.5691 62.1748 16.3261 61.9466 16.0352C61.7184 15.7442 61.5499 15.4111 61.4507 15.0549C61.3516 14.6987 61.3237 14.3265 61.3687 13.9595C61.4062 13.6688 61.425 13.3688 61.425 13.0688C61.425 10.3313 59.9062 8.2876 58.5562 8.2876C57.2062 8.2876 55.6875 10.3313 55.6875 13.0688C55.6875 15.8063 57.2062 17.8501 58.5562 17.8501C60.1125 17.8501 61.3687 19.1063 61.3687 20.6626C61.3687 22.2188 60.1125 23.4751 58.5562 23.4751Z" fill="#616161"/>
<path d="M60.5723 12.7312H67.9223V18.4312H60.5723V12.7312Z" fill="#E0E0E0"/>
<path d="M81.3473 23.4751C76.5848 23.4751 72.8535 18.9001 72.8535 13.0688C72.8535 7.2376 76.5848 2.6626 81.3473 2.6626C86.1098 2.6626 89.841 7.2376 89.841 13.0688C89.841 13.5938 89.8129 14.1188 89.7473 14.6345C89.5598 16.172 88.1535 17.2688 86.616 17.0907C86.2489 17.0471 85.8939 16.9314 85.5716 16.7502C85.2493 16.5691 84.9659 16.3261 84.7377 16.0352C84.5094 15.7442 84.3409 15.4111 84.2418 15.0549C84.1426 14.6987 84.1147 14.3265 84.1598 13.9595C84.1973 13.6688 84.216 13.3688 84.216 13.0688C84.216 10.3313 82.6973 8.2876 81.3473 8.2876C79.9973 8.2876 78.4785 10.3313 78.4785 13.0688C78.4785 15.8063 79.9973 17.8501 81.3473 17.8501C82.9035 17.8501 84.1598 19.1063 84.1598 20.6626C84.1598 22.2188 82.9035 23.4751 81.3473 23.4751Z" fill="#616161"/>
<path d="M83.3623 12.7312H90.7123V18.4312H83.3623V12.7312Z" fill="#E0E0E0"/>
</g>
<defs>
<clipPath id="clip0_212_678">
<rect width="120" height="120" fill="white"/>
</clipPath>
</defs>
</svg>

<svg xmlns="http://www.w3.org/2000/svg" fill="none" aria-hidden="true" data-slot="icon" viewBox="0 0 120 120"><g clip-path="url(#a)"><path fill="#78909C" d="M273.919 252.403h-109.8c-1.613 0-6.441-4.162-6.441-5.784l3.516-74.531a2.93 2.93 0 0 1 2.925-2.925l107.991-2.982c1.612 0 4.734 4.285 4.734 5.907v77.39a2.923 2.923 0 0 1-2.925 2.925M98.869 117.338H23.616a2.637 2.637 0 0 1-2.635-2.635v-96.91a2.637 2.637 0 0 1 2.635-2.634h75.253a2.637 2.637 0 0 1 2.634 2.635v96.919a2.63 2.63 0 0 1-2.634 2.625"/><path fill="#E0E0E0" d="M96.385 114.863H21.13a2.637 2.637 0 0 1-2.634-2.635V15.309a2.637 2.637 0 0 1 2.634-2.634h75.254a2.637 2.637 0 0 1 2.634 2.634v96.919a2.637 2.637 0 0 1-2.634 2.635"/><path fill="#616161" d="M87.59 43.753H29.936a2.344 2.344 0 0 1 0-4.687H87.59a2.344 2.344 0 1 1 0 4.687m0 12.872H29.936a2.344 2.344 0 0 1 0-4.687H87.59a2.344 2.344 0 1 1 0 4.687m0 12.872H29.936a2.344 2.344 0 1 1 0-4.688H87.59a2.344 2.344 0 0 1 0 4.688m0 12.881H29.936a2.344 2.344 0 0 1 0-4.687H87.59a2.344 2.344 0 1 1 0 4.687m-33 12.872H29.936a2.344 2.344 0 0 1 0-4.687H54.59a2.344 2.344 0 1 1 0 4.687"/><path fill="#B0BEC5" d="m99.019 88.51-11.56 14.456-14.878 11.896h23.803c1.472 0 2.635-1.134 2.635-2.634z"/><path fill="#78A3AD" d="M72.581 114.862c.75-4.096 1.013-8.887.338-14.99-.15-1.397.88-2.635 2.287-2.7 3.244-.16 8.813-.572 12.76-1.622 5.653-1.5 11.053-7.04 11.053-7.04s-3.291 8.746-11.963 17.118c-6.112 5.897-14.475 9.234-14.475 9.234"/><path fill="#616161" d="M35.765 23.475c-4.762 0-8.494-4.575-8.494-10.406s3.732-10.406 8.494-10.406c4.763 0 8.494 4.575 8.494 10.406 0 .534-.028 1.06-.094 1.575a2.807 2.807 0 0 1-3.131 2.447 2.82 2.82 0 0 1-2.447-3.14c.038-.282.056-.582.056-.892 0-2.737-1.518-4.78-2.868-4.78s-2.87 2.043-2.87 4.78 1.52 4.782 2.87 4.782a2.81 2.81 0 0 1 2.812 2.812 2.825 2.825 0 0 1-2.822 2.822"/><path fill="#E0E0E0" d="M37.781 12.731h7.35v5.7h-7.35z"/><path fill="#616161" d="M58.556 23.475c-4.762 0-8.493-4.575-8.493-10.406s3.73-10.406 8.493-10.406 8.494 4.575 8.494 10.406c0 .525-.028 1.05-.094 1.565a2.83 2.83 0 0 1-3.131 2.457 2.806 2.806 0 0 1-2.456-3.132c.037-.29.056-.59.056-.89 0-2.738-1.519-4.781-2.869-4.781s-2.868 2.043-2.868 4.78 1.518 4.782 2.868 4.782a2.81 2.81 0 0 1 2.813 2.813 2.81 2.81 0 0 1-2.813 2.812"/><path fill="#E0E0E0" d="M60.572 12.731h7.35v5.7h-7.35z"/><path fill="#616161" d="M81.347 23.475c-4.762 0-8.493-4.575-8.493-10.406s3.73-10.406 8.493-10.406 8.494 4.575 8.494 10.406c0 .525-.028 1.05-.094 1.565a2.83 2.83 0 0 1-3.131 2.457 2.807 2.807 0 0 1-2.456-3.132c.037-.29.056-.59.056-.89 0-2.738-1.519-4.781-2.869-4.781s-2.868 2.043-2.868 4.78 1.518 4.782 2.868 4.782a2.81 2.81 0 0 1 2.813 2.813 2.81 2.81 0 0 1-2.813 2.812"/><path fill="#E0E0E0" d="M83.362 12.731h7.35v5.7h-7.35z"/></g><defs><clipPath id="a"><path fill="#fff" d="M0 0h120v120H0z"/></clipPath></defs></svg>
